X:176
T:Rakes of Clonmel
M: 6/8
L:1/8
C:Traditional
K:Am
"Am"cBA "G"GED|"Am"EAA A2 B|"C"cBc "Am"edc|"G"BGG GBd|
"C"g^fg "Am"ege|"G"dBG Bcd|"Am"ecA "G"GED| "Am"EAA A2:||
^g|"Am"aea aed|cAA A2 ^f|"G"gdg gdc| BGG GAB|
"Am"cBc "G"dcd|"Am"edc "G"Bcd|"Am"ecA "G"GED| "Am"EAA A2:||
g|"Am"eaa aga| "Em"bge e2 d|"G"g^fg "C"ege| "G"dBG "Em"GAB|
"Am"cBc"G" dcd|"Am" edc "G"Bcd|"Am" ecA "G"GED|"Am" EAA A3:||
